X: 82
T:Kerfunten Jig, The
M:6/8
C:Hammy Hamilton
R:jig
Z:id:hn-jig-171
K:G
~B3 BAG|dBd efg|dBd edB|~A3 DFA|~B3 BAG|dBd efg|dBd edB|1 ~A3 G2A:|2 AGF
GBd||~g3 gab|~e3 edB|~g3 gab|bag ~a3|~g3 gab|~e3 efg|dBd edB|1 AGF GBd:
|2 AGF G2c||
"Variations"
~B3 BAG|dBd efg|~d3 gdB|BAG ABc|~B3 BAG|dBd efg|~d3 gdB|1 AGF G2A:|2 AGF
GBd||~g3 gab|~e3 edB|~g3 gab|bag a2b|~g3 gab|~e3 edB|dBd gdB|1 AGF GBd:
|2 AGF G2c||
<end>
<start>
